X:19
T:Rubber Face
R:reel
C:Jerry Holland, SOCAN
O:20th Century Cape Breton
S:Tune ofthe Month, September 1999
D:Fiddler's Choice, Odyssey Records,1999
A:<http://www.jerryholland.com>
N:Contacts ...
N:..... Jerry Holland <jerry@cranfordpub.com>
N:Tune books, related recordings
N:..... Cranford Publications <http://www.cranfordpub.com>
H:Copyrights - www.fiddlesticksmusic.com (SOCAN)
Z:Paul Stewart Cranford <psc@cranfordpub.com>
L:1/8
Q:333
M:C|
K:G
Bc|:dG G/G/G (FG)GB|dGBd cAFA|dG G/G/G (FG)GB|cABG FAce|!
dG G/G/G (FG)GB|dGBd cAFA|Gg g/g/g bgaf|gedB cAFA:|!
Gg g/g/g fgdg|bgfg egdB|ca a/a/a eaca|c'bag fedc|!
Bgfg bgaf|gefd ecdB|ceAc BdGB|BAGF G2 Bc|!
dg g/g/g fgdg|bgfg egdB|ca a/a/a eaca|c'bag fedc|!
Bgfg bgaf|gefd ecdB|ceAc BdGB|BAGF G2|]!
